X:1
T:Wonderful Message
T:Wonderful Message
T:Benjamin Carl Unseld
T:James Rowe, 1911
T:Public Domain Courtesy of the Cyber Hymnal™
T:Public Domain Courtesy of the Cyber Hymnal™
C:Benjamin Carl Unseld
Z:Public Domain
Z:Courtesy of the Cyber Hymnal™
%%score ( 1 2 ) ( 3 4 )
L:1/8
Q:1/4=102
M:6/8
K:G
V:1 treble 
V:2 treble 
V:3 bass 
V:4 bass 
V:1
 [B,D][B,G][B,G] [DB][CA][B,G] | [DA][DB][Dc] [DB]3 | [Dd][Dc][DB] [^CB][CA][CG] | [DA]3- [DA]2 | %4
w: 1.~Tell it to o- thers as|on- ward you go,|Won- der- ful mes- sage of|love; *|
w: 2.~Tell how it bright- ens each|step of the way,|Won- der- ful mes- sage of|love; *|
w: 3.~Sweet- er it seems ev- ery|time it is told,|Won- der- ful mes- sage of|love; *|
 D[DG][DG] [GB][GA][GB] | [Fc][Fd][Fe] [Gd]3 | [Gd][Gc][GB] [FA][FB][DA] | [DG]3- [DG]2 || %8
w: Send it from hearts that with|joy o- ver- flow,|Won- der- ful mes- sage of|love. *|
w: Tell it to those who from|God are a- stray,|Won- der- ful mes- sage of|love. *|
w: Tell it, till safe in the|ci- ty of gold,|Won- der- ful mes- sage of|love. *|
"^Refrain" B3 G2 B | [Gd] c2- c2 z | c3 A2 c | [Ge] d2- d2 z | [Dd][Dc][DB] [^CB][CA][CG] | %13
w: |||||
w: Won- der- ful|mes- sage, *|beau- ti- ful|mes- sage, *|Sent by the Fa- ther a-|
w: |||||
 [DA]3- [DA]2 z | d3 B2 d | [Ge] d2- d2 z | e3 c2 e | [Ge] d2- d2 z | [Gd][Gc][GB] [FA][FB][DA] | %19
w: ||||||
w: bove; *|Won- der- ful|mes- sage, *|Life giv- ing|mes- sage, *|Mar- ve- lous mes- sage of|
w: ||||||
 [DG]3- [DG]2 z |] %20
w: |
w: love. *|
w: |
V:2
 x6 | x6 | x6 | x5 | D x5 | x6 | x6 | x5 || (GGG) (DD) x | x (FFFF) x | (FFF) (DD) x | x (GGGG) x | %12
 x6 | x6 | (GGG) (GG) x | x (GGGG) x | (GGG) (GG) x | x (GGGG) x | x6 | x6 |] %20
V:3
 G,G,G, G,G,G, | [D,F,][D,G,][D,A,] G,3 | [F,A,][G,A,]G, [E,G,][E,A,][E,A,] | [D,F,]3- [D,F,]2 | %4
w: ~ ~ ~ ~ ~ ~|~ ~ ~ ~|~ ~ ~ ~ ~ ~|~ *|
 [G,B,][G,B,][G,B,] [G,D][G,C][G,B,] | [D,A,][D,B,][D,C] [G,B,]3 | %6
w: ~ ~ ~ ~ ~ ~|~ ~ ~ ~|
 [D,B,][D,A,][D,G,] [D,C][D,D][D,C] | [G,B,]3- [G,B,]2 || D3 B,2 G, | [D,B,] A,2- A,2 z | %10
w: ~ ~ ~ ~ ~ ~|~ *|Won- der- ful|* mes- *|
 A,3 F,2 A, | [G,C] B,2- B,2 z | [G,B,][G,A,]G, [E,G,][E,A,][E,A,] | [D,F,]3- [D,F,]2 z | %14
w: sage, beau- tiful|* mes- *|sage, Wond- er- ful mes- sgae,|beau- *|
 B,3 G,2 B, | [G,C] B,2- B,2 z | C3 E2 C | [G,C] B,2- B,2 z | [D,B,][D,A,][D,G,] [D,C][D,D][D,C] | %19
w: tiful mes- sage,|* ~ *|~ ~ ~|* ~ *|~ ~ Won- der- ful mes-|
 [G,B,]3- [G,B,]2 z |] %20
w: sage, *|
V:4
 G,G,G, G,G,G, | x3 G,3 | x2 G, x3 | x5 | x6 | x6 | x6 | x5 || G,G,G, G,G, x | x D,D, D,D, x | %10
 D,D,D, D,D, x | x G,G, G,G, x | x2 G, x3 | x6 | G,G,G, G,G, x | x G,G, G,G, x | C,C,C, C,C, x | %17
 x G,G, G,G, x | x6 | x6 |] %20

